main/static/icons/flask-icon.svg

<svg xmlns="http://www.w3.org/2000/svg" width="800" height="800" viewBox="0 0 32 32"><path d="M14.319 9.028c.35-.62-1.443-.835-.235-.219.112.037.087.262.235.219zM4.542 3.761c-.762-.995 1.432.167.659-.875-.652-.519-1.278.585-.659.875zm1.596 1.25c1.082-.144-.275-.466-.217-.013zm-.855-.205c.232-.315-.407.16 0 0zm1.725 1.899c.672.016-.289-.902.511-.487-.131-.429-.932-.509-1.325-.68-.22.392.45 1.172.812 1.167zm-2.092-.086c.575-.434 1.984.257 1.08-.431-.087-.077-1.982.522-1.08.431zm-.59 1.128c1.007-.342 2.383-.726 2.858.169-.484-.582-.195-1.155.262-.304.645.861.968-.391.547-.681.479.595 1.023.875.321.037.762-.917-1.528.121-2.049.11-.25.112-2.588.596-1.938.669zM6.2 10.881c.246-.304-.337-.081 0 0zm-.587 1.571c-.06-.362-.175.192 0 0zm-.497-.252c.562-.037.882-.621-.109-.587-1.537-.159 1.355.525-.197.33-.209.137.295.296.306.259zm24 15.245c.696 0 2.109-.216.594-.216-.237.038-1.386.03-.595.216zm-3.336-1.959c.075-.51-.337.046 0 0zm2.615 1.787c.015-.444-.38.2 0 0zM2.65 11.165c.499-.381-.589-.145 0 0zm1.899 1.35c.306-.325-.663-.132 0 0zm-.643-.18c.871-.534-.926-.462 0 0zm6.442-4.055c.291-.765 1.132-.306.135-.154.021.081-.03.395-.135.154zm-.8.005c-.069-1.517 1.398.54 0 0zm-2.812.433c.462-.555 2.618-.354 1.04-.054-.422-.319-.747.187-1.04.054zm-.195.13c.277-.325.08.287 0 0zm-.759.306c.04-.514 1.272.272.204.185zm-.556-.01c.437-.325.232.182 0 0zm-.059.543c.304-1.117 1.625.918.497.147a.715.715 0 0 0-.443-.152l-.057.002h.002zM2.05 11.274c-.116-.669-.1-1.842 1.015-1.445-1.488.295 1.03 1.849.712.622.625.03 1.225-.37.895.237 1.233-.137 2.087-1.205 3.279-1.056a12.939 12.939 0 0 0 3.033-.615l-.091.026c.822-.06 1.612-.945 1.162-1.468a12.785 12.785 0 0 0-3.618.308l.086-.017c-1.372.285-2.619.827-4.005 1.061-1.35.181.271.5-.115.57-.705.245.84.41-.091.667-.575-.11-1.175-.307-.928-.912-1.293.166-2.431.704-1.408 2.019h.075zm2.17 1.452c.069-.475-.512.094 0 0zm22.721 14.686c.165-.49-.417.062 0 0zm-2.467-1.279c.412-.379-.525-.117 0 0zM4.062 13.526c.647-.254-1.175-.525-.13-.05zm-1.524-.911c-.044-.4-.237.05 0 0zm-.275.208c-.025-.337-.18.127 0 0zm1.857 1.205c-.087-.731-1.05-.11 0 0zm3.599 2.659c.152-.14-.362-.104 0 0zM4.463 14.6c-.15-.121-.117.152 0 0zm-.517-.253c.011-.312-.829-.28 0 0zm-.905-.228c-.172-.968-.656-.147 0 0zm3.795 2.635c.011-.509-.396-.019 0 0zm17.149 10.682c.64-.13 2.097.325 2.332-.17-.775-.019-2.687-.547-2.777.125l.17.029zM6.378 16.639c-.009-.166-.152.062 0 0zm-1.445-.7c.499-.169-.459-.112 0 0zm11.534 7.786c-.009-.501-.494.125 0 0zM5.241 16.65c.775-.3-.83-.212 0 0zm15.008 9.647c.27-.2-.337-.025 0 0zm-2.814-1.774c-.05-.194-.196.037 0 0zm-.342-.249c-.135-.347-.535-.008 0 0zm-7.099-4.478c0-.506-.906-.205 0 0zm-.82-.19c-.332-.279-.016-.04 0 0zm-5.403-3.331c.115-.479-1.066-2.633-.557-1.08.182.325.162.942.557 1.08zm2.944 2.324c.646.145 2.582 1.592 1.44.1-.585-.172-.234-1.603-.831-1.35.4.669.33.953-.512.532-1.056-.516-.592.255-.387.467-.28.065.374.245.291.25zm16.176 10.413c.482-.322-.586-.104 0 0zm-1.725-1.147c.717-.602-.759.266 0 0zm.337.163c.881-.637-.535-.122-.185.12zm-9.864-5.854c-.181-.371-.28.059 0 0zm-.575-.333c-.025-.3-.364.025 0 0zm9.335 5.886c.689-.444-.157-.375-.125.04zM6.272 18.818c.204-.302-.525-.039 0 0zm14.353 9.2c.712-.61-.45-.128 0 0zm-1.082-.425c1.418-.917-.582-.4 0 0zM4.51 18.178c-.657-.937-.409-1.36-1.043-2.124-.12-.587-1.087-1.916-.5-.507.537.823.697 2.098 1.543 2.632zm15.274 9.675c.771-.817-.747.049 0 0zm-.001.262c.004-.187-.3.082 0 0zm-1.45-.994c.697-.585-.675.26 0 0zm-6.369-3.936c.452.4 2.077.295.55.05-.227-.337-1.438-.255-.55-.05zM7.327 20.39c-.302-.502-1.08-.455 0 0zm-.814-.535c-.125-.491-.875-.487 0 0zm12.111 7.607c.406-.394.016.629.675-.096.006-.519-.021-.825-.757-.195-.202.112-.292.591.082.291zm-.763-.321c.025-.35-.241.3 0 0zm-7.423-4.497c1.762.567-.864-.695 0 0zm-1.45-.833c.425.316 1.6.898.605.12.336-.39-.642-.597-.317-.857-.825-.505-.65-.46-.072-.445-.992-.442.142-.41.087-.637-.381-.075-1.899-.675-1.005.05-.907-.462-.216.172-.49.105-.928-.252.825.706-.147.469.531.421 1.432 1.08.225.446-.16.229.862.575 1.115.75zm2.738 1.817c.769.2.765-.119.069-.212-.375-.35-1.557-.719-.5-.044.071.177.294.174.43.257zm-1.387-.7c-.16-.139.02.087 0 0zm.674-13.262c.117-.144.025.174 0 0zm-.403 2.403c-.27-.475.34-2.091.407-1.087-.284.781-.081 1.218.116.17.366-.825-.079 1.628-.525.918zm-.392.637c-.066-.4.225.505 0 0zm.241.637c-.393-.97.365.512 0 0zm.164.363c-.003-.209.054.302 0 0zm-2.828-1.574c.257-.542.475.604 0 0zm-1.002-.597c.161-.069.085.215 0 0zm4.283 3.344c.146-1.18.129.691 0 0zm-3.842-2.254c.211-.31-.562-1.4.111-.391.29.231.84.387.354.484.762.674-.187.182-.465-.092zm4.062 2.578c.055-1.037.31-.619.002.147zm-4.448-2.218c.519-.11 2.147.911.65.292-.165-.185-.52-.1-.65-.293zm4.738 3.276c.162-.577.012.381 0 0zm-2.102-1.348c-.082-1.012.184.167 0 0zm-2.769-1.469c-.871-1.203 2.533 1.216.559.305-.206-.054-.455-.075-.559-.305zm4.806 3.258c.067-.275.009.322 0 0zm.25.248c.06-.641.124.437 0 0zm-1.437-.85c-.587-.352-.154-2.479.046-1.025.571-.185-.031.75.394.742-.066.591-.257.804-.437.282zm-3.886-2.259c-1.357-1.207 1.706.632.221.225zm.871.833c-.41-.771.5.322 0 0zm-.438-.141c.271-.269.144.265 0 0zm-.712.019c-.467-.462-.805-.891.021-.287.319.012-.707-.972.075-.312.825.15.409 1.352-.096.6zm1.355 1.049c.27-.569.457.792 0 0zm-.563-.193c.05-.754.287.516 0 0zm1.254.863a3.1 3.1 0 0 1-.417-1.562v-.003c.095.472 1.005 2.033.446.647-.617-1.162.737.377.877.667.062.287-.381-.079-.08.597-.55-.771-.325.425-.826-.347zm4.056 2.706c-.44-.987.312-.54.097.162zm-2.352-.755c-.194-.347.404.325 0 0zm2.739 1.906c.168-.63.198.53 0 0zM8.78 18.026c.274-.075.135.467 0 0zm4.873 3.364c-.465-.9.587.255 0 0zm.403.541c-.012-.585.134.45 0 0zm4.631 3.519c.231-.014.008.175 0 0zm-4.047-2.571c-.37-.387-.466-1.112-.066-.481.205.082.656 1.183.066.481zm1.243 3.509c.966-.577.647 1.352 1.638.162.977-.712-.843.883.362.129.87-.584 2.157.275 2.969.556.585-.029 1.153.506 1.753.181 1.153-.312-2.257-.462-1.362-1.012a2.192 2.192 0 0 1-2.35-1.033l-.006-.01a4.87 4.87 0 0 1-3.136-1.914l-.009-.013c-.24-.394.35.055-.207-.587a8.7 8.7 0 0 1-1.527-2.079l-.023-.047c-.571-.305-.637-1.203-.696-.03.005-.741-.691-1.24-.86-1.032-.002-.714.744-.356.22-.884-.112-.74-.482-1.512-.594-2.346-.172-.402-.025-1.263-.591-.352-.206.962-.069-1.183.252-.475.421-.725-.15-.637-.175-.537.275-.61.175-1.475-.071-1.145.146-.646.231-2.377-.219-2.069.272-.675.517-3.09-.667-2.169a5.01 5.01 0 0 0-1.736.382l.033-.012c1.232.679-.125.245-.625.137-.065.627-.562.356-1.182.362.991.122-.482 1.012-1.051.667-.737.352.637 1.233.015 1.506.075.41-1.131-.15-1.037.8-.716-.301-.097 1.125.261.642 1.218.33.857 1.082.887 1.796-.197.416-.98-.978-.175-.914-.634-1.033-.701-.375-1.23.106-.125.035 1.348.684.425 1.003.812.125.835.837 1 1.287.487.509.387-.562.973.05-.37-.545-1.958-1.535-.68-1.217-.006-.55-.231-.991.161-.98.387-.702-.406 1.733.469.84.241-.106.3-.704.737.056.631.622.227 1.072-.664.504.159.541 1.192.734.998 1.581.206.744.494.47.745.427.197.722.309.191.319-.154.9.194.69.725.972 1.1.621.28-.89-1.902.177-.657 1.122 1.012.421 1.437-.587 1.275.637-.051.844.862 1.641.83.727.346 1.218 1.675-.034 1.121-.435-.391-1.974-.875-.716-.13a29.11 29.11 0 0 1 3.35 1.611l-.15-.077c.8.572 1.147 1.227 1.45 1.357-.672.321-2.028-.257-1.021-.435-.629-.114-1.335-.431-.734.35.512.429 1.812.382 2.046.431-.199.435-.537.47.008.504-.607.325.195.375.251.56zm-3.594-2.209c1.033.132-1.231-.704-.226-.075zm2.756 1.871c.897-.356-.875-.175 0 0zm-5.299-3.296c.575-.062-.925-.389 0 0zm3.131 1.99c.075-.319-.66-.096 0 0zm4.579 2.965c-.012-.246-.229.094 0 0zm-4.206-2.58c-.142-.162-.068.035 0 0zm-6.757-4.293c-.096-.371-.842-.667 0 0zm2.574 1.665c.775-.046-1.06-.341 0 0zm2.172 1.567c-.08-.239-.42-.01 0 0zm5.786 3.569c.035-.454-.441.337 0 0zm-8.085-4.98c-.052-.25-.332.023 0 0zm5.803 3.699c1.35.012-1.218-.184 0 0zm-2.466-1.425c1.425.404-1.197-.9-.351-.147l.187.085.162.062zm1.23.979c.241-.412-1.018-.237 0 0zm-4.049-2.472c.582.447 2.349.057.892-.266-.662-.354-2.158-.595-1.14.212zm3.229 2.215c.537-.202-.87-.204 0 0zm-1.207-.741c.375-.262-.776-.2 0 0zm-1.437-.837c-.05-.209-.77-.231 0 0zm4.9 3.817c.496.312 2.899.687 1.393.129-.25.052-2.787-.717-1.395-.129zm-3.087-1.927c-.017-.207-.22.094 0 0zm-.617-.308c.609-.394-.787-.005 0 0zm2.708 1.891c.239-.352-.762-.134 0 0zm-1.409-.787c.39-.375-.605-.235 0 0zm-.824-.344c-.067-.331-.3.185 0 0zm-.658-.24c.269-.12-.387-.15 0 0zm-4.941-4.37c.041-.182.221.396 0 0zm3.491 3.833c1.212.449-.005-.852-.562-.777-.245-.426-.938-.696-.45-.925-.88.305-.921-1.162-1.337-.953-.93-.294-.362-1.337-1.47-1.974-.101-.675-1.102-1.26-1.422-2.277-.141-.52-1.131-2.016-.522-.625a19.646 19.646 0 0 0 2.221 3.68l-.034-.047a7.541 7.541 0 0 0 2.336 2.898l.02.014c.362.348.71.879 1.221.987zm2.379 1.682a13.806 13.806 0 0 0 3.753 1.268l.088.014a19.7 19.7 0 0 0 4.336.47c.798 0 1.586-.046 2.36-.136l-.094.009c-.987-.446-2.009.175-2.993-.319a11.012 11.012 0 0 1-3.72-.236l.075.015a32.59 32.59 0 0 1-4.292-1.902l.179.087c-1.596-.582.825.747 1.256.856.997.566-1.096-.291-1.392-.526-.835-.469-.942-.371-.082.105.174.1.345.207.525.294zm-2.018-.875a14.643 14.643 0 0 1-3.171-2.945l-.023-.029a23.988 23.988 0 0 1-3.971-7.051l-.053-.168c-.557-1.693-.75-3.509-1.467-5.136A1.954 1.954 0 0 1 2.693 8.27l.011-.001c.575-.109 1.59-.652.366-.264-1.097.805-1.203-.731-.079-.827a.892.892 0 0 0 .785-1.301l.002.005c-.825-.537 1.999-1.128.579-1.929-1.478-1.598 2.071-1.904 1.196-.092-.209 1.393 2.479-.256 1.856 1.353.634.774 2.374.175 2.331 1.261.925.062 1.241.84 2.108.9.9.406 2.527.725 2.832 1.737-.891.707-2.954-1.456-3.053.497.023 3.075.48 6.034 1.312 8.832l-.057-.225a12.7 12.7 0 0 0 2.804 4.271 12.346 12.346 0 0 0 3.834 2.884l.074.032c1.16.548 2.508.98 3.918 1.228l.097.014c.56-.429 1.55-2.021 2.422-1.35.041.755-1.735 1.578-.084 1.495.97-.292 1.642.75 2.441-.19.735.871 3.057-.557 2.533 1.225-.707.455-1.739.18-2.448.807-1.168-.584-2.099.522-3.393.382a24.1 24.1 0 0 1-4.228.363h-.133.007a26.438 26.438 0 0 1-7.29-1.149l.187.049a14.37 14.37 0 0 1-3.7-1.86l.046.031z"/></svg>

<?xml version="1.0" encoding="utf-8"?>
<!-- Uploaded to: SVG Repo, www.svgrepo.com, Generator: SVG Repo Mixer Tools -->
<svg fill="#000000" width="800px" height="800px" viewBox="0 0 32 32" version="1.1" xmlns="http://www.w3.org/2000/svg">
<title>flask</title>
<path d="M14.319 9.028c0.35-0.62-1.443-0.835-0.235-0.219 0.112 0.037 0.087 0.262 0.235 0.219zM4.542 3.761c-0.762-0.995 1.432 0.167 0.659-0.875-0.652-0.519-1.278 0.585-0.659 0.875zM6.138 5.011c1.082-0.144-0.275-0.466-0.217-0.013zM5.283 4.806c0.232-0.315-0.407 0.16 0 0zM7.008 6.705c0.672 0.016-0.289-0.902 0.511-0.487-0.131-0.429-0.932-0.509-1.325-0.68-0.22 0.392 0.45 1.172 0.812 1.167zM4.916 6.619c0.575-0.434 1.984 0.257 1.080-0.431-0.087-0.077-1.982 0.522-1.080 0.431zM4.326 7.747c1.007-0.342 2.383-0.726 2.858 0.169-0.484-0.582-0.195-1.155 0.262-0.304 0.645 0.861 0.968-0.391 0.547-0.681 0.479 0.595 1.023 0.875 0.321 0.037 0.762-0.917-1.528 0.121-2.049 0.11-0.25 0.112-2.588 0.596-1.938 0.669zM6.2 10.881c0.246-0.304-0.337-0.081 0 0zM5.613 12.452c-0.060-0.362-0.175 0.192 0 0zM5.116 12.2c0.562-0.037 0.882-0.621-0.109-0.587-1.537-0.159 1.355 0.525-0.197 0.33-0.209 0.137 0.295 0.296 0.306 0.259zM29.116 27.445c0.696 0 2.109-0.216 0.594-0.216-0.237 0.038-1.386 0.030-0.595 0.216zM25.78 25.486c0.075-0.51-0.337 0.046 0 0zM28.395 27.273c0.015-0.444-0.38 0.2 0 0zM2.65 11.165c0.499-0.381-0.589-0.145 0 0zM4.549 12.515c0.306-0.325-0.663-0.132 0 0zM3.906 12.335c0.871-0.534-0.926-0.462 0 0zM10.348 8.28c0.291-0.765 1.132-0.306 0.135-0.154 0.021 0.081-0.030 0.395-0.135 0.154zM9.548 8.285c-0.069-1.517 1.398 0.54-0 0zM6.736 8.718c0.462-0.555 2.618-0.354 1.040-0.054-0.422-0.319-0.747 0.187-1.040 0.054zM6.541 8.848c0.277-0.325 0.080 0.287-0 0zM5.782 9.154c0.040-0.514 1.272 0.272 0.204 0.185zM5.226 9.144c0.437-0.325 0.232 0.182-0 0zM5.167 9.687c0.304-1.117 1.625 0.918 0.497 0.147-0.121-0.095-0.275-0.152-0.443-0.152-0.019 0-0.038 0.001-0.057 0.002l0.002-0zM2.050 11.274c-0.116-0.669-0.1-1.842 1.015-1.445-1.488 0.295 1.030 1.849 0.712 0.622 0.625 0.030 1.225-0.37 0.895 0.237 1.233-0.137 2.087-1.205 3.279-1.056 1.082-0.090 2.082-0.299 3.033-0.615l-0.091 0.026c0.822-0.060 1.612-0.945 1.162-1.468-0.218-0.013-0.473-0.021-0.73-0.021-0.993 0-1.96 0.114-2.888 0.329l0.086-0.017c-1.372 0.285-2.619 0.827-4.005 1.061-1.35 0.181 0.271 0.5-0.115 0.57-0.705 0.245 0.84 0.41-0.091 0.667-0.575-0.11-1.175-0.307-0.928-0.912-1.293 0.166-2.431 0.704-1.408 2.019h0.075zM4.22 12.726c0.069-0.475-0.512 0.094-0 0zM26.941 27.412c0.165-0.49-0.417 0.062 0 0zM24.474 26.133c0.412-0.379-0.525-0.117 0 0zM4.062 13.526c0.647-0.254-1.175-0.525-0.13-0.050zM2.538 12.615c-0.044-0.4-0.237 0.050 0 0zM2.263 12.823c-0.025-0.337-0.18 0.127 0 0zM4.12 14.028c-0.087-0.731-1.050-0.11 0-0zM7.719 16.687c0.152-0.14-0.362-0.104 0 0zM4.463 14.6c-0.15-0.121-0.117 0.152 0 0zM3.946 14.347c0.011-0.312-0.829-0.28 0 0zM3.041 14.119c-0.172-0.968-0.656-0.147-0 0zM6.836 16.754c0.011-0.509-0.396-0.019 0 0zM23.985 27.436c0.64-0.13 2.097 0.325 2.332-0.17-0.775-0.019-2.687-0.547-2.777 0.125l0.17 0.029zM6.378 16.639c-0.009-0.166-0.152 0.062 0 0zM4.933 15.939c0.499-0.169-0.459-0.112 0 0zM16.467 23.725c-0.009-0.501-0.494 0.125 0 0zM5.241 16.65c0.775-0.3-0.83-0.212 0 0zM20.249 26.297c0.27-0.2-0.337-0.025 0 0zM17.435 24.523c-0.050-0.194-0.196 0.037 0 0zM17.093 24.274c-0.135-0.347-0.535-0.008 0 0zM9.994 19.796c0-0.506-0.906-0.205 0 0zM9.174 19.606c-0.332-0.279-0.016-0.040 0 0zM3.771 16.275c0.115-0.479-1.066-2.633-0.557-1.080 0.182 0.325 0.162 0.942 0.557 1.080zM6.715 18.599c0.646 0.145 2.582 1.592 1.44 0.1-0.585-0.172-0.234-1.603-0.831-1.35 0.4 0.669 0.33 0.953-0.512 0.532-1.056-0.516-0.592 0.255-0.387 0.467-0.28 0.065 0.374 0.245 0.291 0.25zM22.891 29.012c0.482-0.322-0.586-0.104 0 0zM21.166 27.865c0.717-0.602-0.759 0.266-0 0zM21.503 28.028c0.881-0.637-0.535-0.122-0.185 0.12zM11.639 22.174c-0.181-0.371-0.28 0.059 0 0zM11.064 21.841c-0.025-0.3-0.364 0.025 0 0zM20.399 27.727c0.689-0.444-0.157-0.375-0.125 0.040zM6.272 18.818c0.204-0.302-0.525-0.039 0 0zM20.625 28.018c0.712-0.61-0.45-0.128 0-0zM19.543 27.593c1.418-0.917-0.582-0.4 0-0zM4.51 18.178c-0.657-0.937-0.409-1.36-1.043-2.124-0.12-0.587-1.087-1.916-0.5-0.507 0.537 0.823 0.697 2.098 1.543 2.632zM19.784 27.853c0.771-0.817-0.747 0.049 0 0zM19.783 28.115c0.004-0.187-0.3 0.082-0 0zM18.333 27.121c0.697-0.585-0.675 0.26-0 0zM11.964 23.185c0.452 0.4 2.077 0.295 0.55 0.050-0.227-0.337-1.438-0.255-0.55-0.050zM7.327 20.39c-0.302-0.502-1.080-0.455 0 0zM6.513 19.855c-0.125-0.491-0.875-0.487 0-0zM18.624 27.462c0.406-0.394 0.016 0.629 0.675-0.096 0.006-0.519-0.021-0.825-0.757-0.195-0.202 0.112-0.292 0.591 0.082 0.291zM17.861 27.141c0.025-0.35-0.241 0.3 0-0zM10.438 22.644c1.762 0.567-0.864-0.695 0-0zM8.988 21.811c0.425 0.316 1.6 0.898 0.605 0.12 0.336-0.39-0.642-0.597-0.317-0.857-0.825-0.505-0.65-0.46-0.072-0.445-0.992-0.442 0.142-0.41 0.087-0.637-0.381-0.075-1.899-0.675-1.005 0.050-0.907-0.462-0.216 0.172-0.49 0.105-0.928-0.252 0.825 0.706-0.147 0.469 0.531 0.421 1.432 1.080 0.225 0.446-0.16 0.229 0.862 0.575 1.115 0.75zM11.726 23.628c0.769 0.2 0.765-0.119 0.069-0.212-0.375-0.35-1.557-0.719-0.5-0.044 0.071 0.177 0.294 0.174 0.43 0.257zM10.339 22.928c-0.16-0.139 0.020 0.087-0-0zM11.013 9.666c0.117-0.144 0.025 0.174-0-0zM10.61 12.069c-0.27-0.475 0.34-2.091 0.407-1.087-0.284 0.781-0.081 1.218 0.116 0.17 0.366-0.825-0.079 1.628-0.525 0.918zM10.218 12.706c-0.066-0.4 0.225 0.505 0 0zM10.459 13.343c-0.393-0.97 0.365 0.512-0-0zM10.623 13.706c-0.003-0.209 0.054 0.302-0-0zM7.795 12.132c0.257-0.542 0.475 0.604-0-0zM6.793 11.535c0.161-0.069 0.085 0.215-0-0zM11.076 14.879c0.146-1.18 0.129 0.691-0-0zM7.234 12.625c0.211-0.31-0.562-1.4 0.111-0.391 0.29 0.231 0.84 0.387 0.354 0.484 0.762 0.674-0.187 0.182-0.465-0.092zM11.296 15.203c0.055-1.037 0.31-0.619 0.002 0.147zM6.848 12.985c0.519-0.11 2.147 0.911 0.65 0.292-0.165-0.185-0.52-0.1-0.65-0.293zM11.586 16.261c0.162-0.577 0.012 0.381 0 0zM9.484 14.913c-0.082-1.012 0.184 0.167 0 0zM6.715 13.444c-0.871-1.203 2.533 1.216 0.559 0.305-0.206-0.054-0.455-0.075-0.559-0.305zM11.521 16.702c0.067-0.275 0.009 0.322 0 0zM11.771 16.95c0.060-0.641 0.124 0.437-0 0zM10.334 16.1c-0.587-0.352-0.154-2.479 0.046-1.025 0.571-0.185-0.031 0.75 0.394 0.742-0.066 0.591-0.257 0.804-0.437 0.282zM6.448 13.841c-1.357-1.207 1.706 0.632 0.221 0.225zM7.319 14.674c-0.41-0.771 0.5 0.322 0 0zM6.881 14.533c0.271-0.269 0.144 0.265 0 0zM6.169 14.552c-0.467-0.462-0.805-0.891 0.021-0.287 0.319 0.012-0.707-0.972 0.075-0.312 0.825 0.15 0.409 1.352-0.096 0.6zM7.524 15.601c0.27-0.569 0.457 0.792 0 0zM6.961 15.408c0.050-0.754 0.287 0.516 0 0zM8.215 16.271c-0.262-0.448-0.417-0.987-0.417-1.562 0-0.001 0-0.002 0-0.003v0c0.095 0.472 1.005 2.033 0.446 0.647-0.617-1.162 0.737 0.377 0.877 0.667 0.062 0.287-0.381-0.079-0.080 0.597-0.55-0.771-0.325 0.425-0.826-0.347zM12.271 18.977c-0.44-0.987 0.312-0.54 0.097 0.162zM9.919 18.222c-0.194-0.347 0.404 0.325 0 0zM12.658 20.128c0.168-0.63 0.198 0.53 0 0zM8.78 18.026c0.274-0.075 0.135 0.467 0 0zM13.653 21.39c-0.465-0.9 0.587 0.255 0 0zM14.056 21.931c-0.012-0.585 0.134 0.45 0 0zM18.687 25.45c0.231-0.014 0.008 0.175 0 0zM14.64 22.879c-0.37-0.387-0.466-1.112-0.066-0.481 0.205 0.082 0.656 1.183 0.066 0.481zM15.883 26.388c0.966-0.577 0.647 1.352 1.638 0.162 0.977-0.712-0.843 0.883 0.362 0.129 0.87-0.584 2.157 0.275 2.969 0.556 0.585-0.029 1.153 0.506 1.753 0.181 1.153-0.312-2.257-0.462-1.362-1.012-0.138 0.031-0.297 0.049-0.46 0.049-0.805 0-1.509-0.435-1.89-1.082l-0.006-0.010c-1.299-0.215-2.402-0.92-3.136-1.914l-0.009-0.013c-0.24-0.394 0.35 0.055-0.207-0.587-0.606-0.61-1.123-1.311-1.527-2.079l-0.023-0.047c-0.571-0.305-0.637-1.203-0.696-0.030 0.005-0.741-0.691-1.24-0.86-1.032-0.002-0.714 0.744-0.356 0.22-0.884-0.112-0.74-0.482-1.512-0.594-2.346-0.172-0.402-0.025-1.263-0.591-0.352-0.206 0.962-0.069-1.183 0.252-0.475 0.421-0.725-0.15-0.637-0.175-0.537 0.275-0.61 0.175-1.475-0.071-1.145 0.146-0.646 0.231-2.377-0.219-2.069 0.272-0.675 0.517-3.090-0.667-2.169-0.62 0.025-1.202 0.159-1.736 0.382l0.033-0.012c1.232 0.679-0.125 0.245-0.625 0.137-0.065 0.627-0.562 0.356-1.182 0.362 0.991 0.122-0.482 1.012-1.051 0.667-0.737 0.352 0.637 1.233 0.015 1.506 0.075 0.41-1.131-0.15-1.037 0.8-0.716-0.301-0.097 1.125 0.261 0.642 1.218 0.33 0.857 1.082 0.887 1.796-0.197 0.416-0.98-0.978-0.175-0.914-0.634-1.033-0.701-0.375-1.23 0.106-0.125 0.035 1.348 0.684 0.425 1.003 0.812 0.125 0.835 0.837 1 1.287 0.487 0.509 0.387-0.562 0.973 0.050-0.37-0.545-1.958-1.535-0.68-1.217-0.006-0.55-0.231-0.991 0.161-0.98 0.387-0.702-0.406 1.733 0.469 0.84 0.241-0.106 0.3-0.704 0.737 0.056 0.631 0.622 0.227 1.072-0.664 0.504 0.159 0.541 1.192 0.734 0.998 1.581 0.206 0.744 0.494 0.47 0.745 0.427 0.197 0.722 0.309 0.191 0.319-0.154 0.9 0.194 0.69 0.725 0.972 1.1 0.621 0.28-0.89-1.902 0.177-0.657 1.122 1.012 0.421 1.437-0.587 1.275 0.637-0.051 0.844 0.862 1.641 0.83 0.727 0.346 1.218 1.675-0.034 1.121-0.435-0.391-1.974-0.875-0.716-0.13 1.282 0.525 2.335 1.039 3.35 1.611l-0.15-0.077c0.8 0.572 1.147 1.227 1.45 1.357-0.672 0.321-2.028-0.257-1.021-0.435-0.629-0.114-1.335-0.431-0.734 0.35 0.512 0.429 1.812 0.382 2.046 0.431-0.199 0.435-0.537 0.47 0.008 0.504-0.607 0.325 0.195 0.375 0.251 0.56zM12.289 24.179c1.033 0.132-1.231-0.704-0.226-0.075zM15.045 26.050c0.897-0.356-0.875-0.175 0 0zM9.746 22.754c0.575-0.062-0.925-0.389 0 0zM12.877 24.744c0.075-0.319-0.66-0.096 0 0zM17.456 27.709c-0.012-0.246-0.229 0.094 0 0zM13.25 25.129c-0.142-0.162-0.068 0.035 0 0zM6.493 20.836c-0.096-0.371-0.842-0.667 0 0zM9.067 22.501c0.775-0.046-1.060-0.341 0 0zM11.239 24.068c-0.080-0.239-0.42-0.010 0 0zM17.025 27.637c0.035-0.454-0.441 0.337 0 0zM8.94 22.657c-0.052-0.25-0.332 0.023 0 0zM14.743 26.356c1.35 0.012-1.218-0.184 0 0zM12.277 24.931c1.425 0.404-1.197-0.9-0.351-0.147l0.187 0.085 0.162 0.062zM13.507 25.91c0.241-0.412-1.018-0.237 0 0zM9.458 23.438c0.582 0.447 2.349 0.057 0.892-0.266-0.662-0.354-2.158-0.595-1.14 0.212zM12.687 25.653c0.537-0.202-0.87-0.204 0 0zM11.48 24.912c0.375-0.262-0.776-0.2 0 0zM10.043 24.075c-0.050-0.209-0.77-0.231 0 0zM14.943 27.892c0.496 0.312 2.899 0.687 1.393 0.129-0.25 0.052-2.787-0.717-1.395-0.129zM11.856 25.965c-0.017-0.207-0.22 0.094 0 0zM11.239 25.657c0.609-0.394-0.787-0.005 0 0zM13.947 27.548c0.239-0.352-0.762-0.134 0 0zM12.538 26.761c0.39-0.375-0.605-0.235 0 0zM11.714 26.417c-0.067-0.331-0.3 0.185 0 0zM11.056 26.177c0.269-0.12-0.387-0.15 0 0zM6.115 21.807c0.041-0.182 0.221 0.396 0 0zM9.606 25.64c1.212 0.449-0.005-0.852-0.562-0.777-0.245-0.426-0.938-0.696-0.45-0.925-0.88 0.305-0.921-1.162-1.337-0.953-0.93-0.294-0.362-1.337-1.47-1.974-0.101-0.675-1.102-1.26-1.422-2.277-0.141-0.52-1.131-2.016-0.522-0.625 0.648 1.386 1.378 2.579 2.221 3.68l-0.034-0.047c0.545 1.179 1.346 2.158 2.336 2.898l0.020 0.014c0.362 0.348 0.71 0.879 1.221 0.987zM11.985 27.322c1.11 0.571 2.398 1.016 3.753 1.268l0.088 0.014c1.303 0.299 2.799 0.47 4.336 0.47 0.798 0 1.586-0.046 2.36-0.136l-0.094 0.009c-0.987-0.446-2.009 0.175-2.993-0.319-0.35 0.040-0.756 0.062-1.167 0.062-0.879 0-1.734-0.103-2.553-0.298l0.075 0.015c-1.631-0.594-2.987-1.206-4.292-1.902l0.179 0.087c-1.596-0.582 0.825 0.747 1.256 0.856 0.997 0.566-1.096-0.291-1.392-0.526-0.835-0.469-0.942-0.371-0.082 0.105 0.174 0.1 0.345 0.207 0.525 0.294zM9.967 26.447c-1.228-0.845-2.28-1.828-3.171-2.945l-0.023-0.029c-1.676-2.057-3.041-4.451-3.971-7.051l-0.053-0.168c-0.557-1.693-0.75-3.509-1.467-5.136-0.145-0.266-0.23-0.583-0.23-0.92 0-0.972 0.711-1.779 1.641-1.928l0.011-0.001c0.575-0.109 1.59-0.652 0.366-0.264-1.097 0.805-1.203-0.731-0.079-0.827 0.489-0.005 0.884-0.402 0.884-0.892 0-0.147-0.036-0.286-0.099-0.409l0.002 0.005c-0.825-0.537 1.999-1.128 0.579-1.929-1.478-1.598 2.071-1.904 1.196-0.092-0.209 1.393 2.479-0.256 1.856 1.353 0.634 0.774 2.374 0.175 2.331 1.261 0.925 0.062 1.241 0.84 2.108 0.9 0.9 0.406 2.527 0.725 2.832 1.737-0.891 0.707-2.954-1.456-3.053 0.497 0.023 3.075 0.48 6.034 1.312 8.832l-0.057-0.225c0.67 1.664 1.62 3.085 2.804 4.271l-0-0c1.079 1.202 2.376 2.182 3.834 2.884l0.074 0.032c1.16 0.548 2.508 0.98 3.918 1.228l0.097 0.014c0.56-0.429 1.55-2.021 2.422-1.35 0.041 0.755-1.735 1.578-0.084 1.495 0.97-0.292 1.642 0.75 2.441-0.19 0.735 0.871 3.057-0.557 2.533 1.225-0.707 0.455-1.739 0.18-2.448 0.807-1.168-0.584-2.099 0.522-3.393 0.382-1.271 0.231-2.734 0.363-4.228 0.363-0.044 0-0.089-0-0.133-0l0.007 0c-2.548-0.045-4.986-0.444-7.29-1.149l0.187 0.049c-1.394-0.471-2.603-1.091-3.7-1.86l0.046 0.031z"></path>
</svg>
